!! George Gerswhin, "They Can't Take That Away From Me" from
!! "Bumper Book of George Gerswhin,"
!! London: Chappell Music Ltd., 1987; pp.406-409
**kern
*M2/2
*MM[Moderato]
!! Verse
=1
4b-
4cc
4cc
4dd-
=2
4cc
8b-
8a-
6g
6f
6g
=3
1e-
=4
6f#
6g#
6f#
6fn
6gn
6fn
=5
[2e-
4e-]
8r
8g
=6
4b-
4cc
4cc
4dd-
=7
4cc
8b-
8a-
6g
6f
6g
=8
2.b-
4cc
!! page 407
=9
6dd
6dd
6dd
4d
4d
=10
1en
=11
4cc
4cc
6bn
6an
6b
=12
2.g
4d
=13
4cc
4cc
4bn
4an
=14
2.b-
4cc
=15
4dd
4cc
4cc
8b-
8cc
=16
4b-
4a-
4cc
4g
=17
1f
!! Refrain
=18
8r
8e-
8e-
8e-
4e-
8e-
[8g
=19
1g]
=20
8r
8e-
8e-
8e-
4e-
8e-
[8B-
=21
1B-]
=22
8r
8e-
8e-
8e-
4e-
8e-
[8b-
=23
1b-_
=24
8b-]
8r
4cc
4cc
4cc
=25
8.ee-
16cc
8.b-
16a-
4b-
8g
8f
!! page 408
=26
8r
8e-
8e-
8e-
4e-
8e-
[8g
=27
1g]
=28
8r
8e-
8e-
8e-
4e-
8e-
[8B-
=29
1B-]
=30
8r
8e-
8e-
8e-
4e-
8e-
[8b-
=31
1b-_
=32
4b-]
4cc
4cc
4cc
=33
8.ee-
16cc
8.b-
16a-
4b-
8g
[8e-
=34
2.e-]
8g
8an
=35
4b-
4g
4dd
4cc
=36
4b-
4g
4dd
8cc
8b-
=37
8g
8g
2g
4f
=38
2.d
8g
8an
=39
4b-
4g
4dd
4cc
=40
4b-
4g
4cc
4cc
=41
1f
!! page 409
=42
8r
8e-
8e-
8e-
4e-
8e-
[8g
=43
1g]
=44
8r
8e-
8e-
8e-
4e-
8e-
[8B-
=45
1B-]
=46
8r
8e-
8e-
8e-
4e-
8e-
[8cc
=47
1cc_
=48
4cc]
4ee-
4ee-
4ee-
=49
8.ee-
16cc
8.b-
16a-
4b-
8g
[8e-
=50
8e-]
8r
2b-
4a-
=51
4g
4a-
4g
4b-
=52
2f
2g
!! First ending.
=53
[2e-
4e-]
4r
!! Refrain
=18
8r
8e-
8e-
8e-
4e-
8e-
[8g
=19
1g]
=20
8r
8e-
8e-
8e-
4e-
8e-
[8B-
=21
1B-]
=22
8r
8e-
8e-
8e-
4e-
8e-
[8b-
=23
1b-_
=24
8b-]
8r
4cc
4cc
4cc
=25
8.ee-
16cc
8.b-
16a-
4b-
8g
8f
!! page 408
=26
8r
8e-
8e-
8e-
4e-
8e-
[8g
=27
1g]
=28
8r
8e-
8e-
8e-
4e-
8e-
[8B-
=29
1B-]
=30
8r
8e-
8e-
8e-
4e-
8e-
[8b-
=31
1b-_
=32
4b-]
4cc
4cc
4cc
=33
8.ee-
16cc
8.b-
16a-
4b-
8g
[8e-
=34
2.e-]
8g
8an
=35
4b-
4g
4dd
4cc
=36
4b-
4g
4dd
8cc
8b-
=37
8g
8g
2g
4f
=38
2.d
8g
8an
=39
4b-
4g
4dd
4cc
=40
4b-
4g
4cc
4cc
=41
1f
!! page 409
=42
8r
8e-
8e-
8e-
4e-
8e-
[8g
=43
1g]
=44
8r
8e-
8e-
8e-
4e-
8e-
[8B-
=45
1B-]
=46
8r
8e-
8e-
8e-
4e-
8e-
[8cc
=47
1cc_
=48
4cc]
4ee-
4ee-
4ee-
=49
8.ee-
16cc
8.b-
16a-
4b-
8g
[8e-
=50
8e-]
8r
2b-
4a-
=51
4g
4a-
4g
4b-
=52
2f
2g
!! Second ending.
=53
[1e-
=54
2e-_
4e-]
4r
====
*-
